img/bg_headline_desktop.svg

<?xml version="1.0" encoding="UTF-8" standalone="no"?>
<svg
   width="662"
   height="875"
   viewBox="0 0 662 875"
   fill="none"
   version="1.1"
   id="svg89"
   sodipodi:docname="bg_headline_desktop.svg"
   inkscape:version="1.1 (c68e22c387, 2021-05-23)"
   xmlns:inkscape="http://www.inkscape.org/namespaces/inkscape"
   xmlns:sodipodi="http://sodipodi.sourceforge.net/DTD/sodipodi-0.dtd"
   xmlns="http://www.w3.org/2000/svg"
   xmlns:svg="http://www.w3.org/2000/svg">
  <sodipodi:namedview
     id="namedview91"
     pagecolor="#505050"
     bordercolor="#ffffff"
     borderopacity="1"
     inkscape:pageshadow="0"
     inkscape:pageopacity="0"
     inkscape:pagecheckerboard="1"
     showgrid="false"
     inkscape:zoom="0.928"
     inkscape:cx="331.35776"
     inkscape:cy="350.75431"
     inkscape:window-width="1920"
     inkscape:window-height="1001"
     inkscape:window-x="-9"
     inkscape:window-y="-9"
     inkscape:window-maximized="1"
     inkscape:current-layer="svg89" />
  <g
     clip-path="url(#clip0)"
     id="g82"
     transform="matrix(0.82589025,0,0,0.84227097,119.95874,163.96485)">
    <path
       d="m 766.504,80.1959 54.935,89.4201 c 0,0 -33.107,16.025 -79.941,51.744 -39.789,30.479 -90.172,88.002 -90.172,88.002 L 558,148.674 c 0,0 41.683,-49.3584 103.619,-90.9073 57.269,-38.6115 69.185,-36.1616 69.185,-36.1616 z"
       fill="#ffffff"
       stroke="#262626"
       stroke-width="1.22338"
       stroke-miterlimit="10"
       id="path2" />
    <path
       d="m 577.835,127.287 82.282,144.573 c 0,0 27.489,-30.357 57.846,-56.304 52.382,-44.379 92.658,-63.213 92.658,-63.213 L 730.479,21.4213 c 0.325,0.1838 -72.892,18.8347 -152.644,105.8657 z"
       fill="#262626"
       id="path4" />
    <path
       d="m 989.606,104.922 c 0,0 -43.846,-33.5956 -134.702,-0.467 C 764.047,137.583 665.378,226.57 665.378,226.57 L 574.1,68.3277 c 0,0 124.552,-104.3797 208.271,-120.7367 67.841,-13.3255 103.356,5.0466 103.356,5.0466 z"
       fill="#ffffff"
       stroke="#262626"
       stroke-width="1.22338"
       stroke-miterlimit="10"
       id="path6" />
    <path
       d="M 969.056,34.7358 859.587,266.702 553.478,228.275"
       stroke="#ff6b00"
       stroke-width="1.22338"
       stroke-miterlimit="10"
       id="path8" />
    <path
       d="m 552.459,355.12 167.477,-46.421 23.058,83.188 -167.477,46.422 z"
       fill="#ffffff"
       stroke="#ff6b00"
       stroke-width="1.22338"
       stroke-miterlimit="10"
       id="path10" />
    <path
       d="m 467.644,697.776 -19.09,5.291 c -4.989,-2.178 -10.162,-4.031 -15.222,-6.464 -0.65,-0.368 -1.229,-0.481 -1.879,-0.849 l -6.065,-21.878 33.089,-9.172 z"
       fill="#ffffff"
       stroke="#ff6b00"
       stroke-width="1.22338"
       stroke-miterlimit="10"
       id="path12" />
    <path
       d="m 509.898,721.677 33.088,-9.172 -9.167,-33.072 -33.088,9.172 -9.167,-33.072 33.088,-9.171 -9.167,-33.072 -33.088,9.171 -33.088,9.172 -9.167,-33.072 33.088,-9.172 -9.167,-33.072 -33.088,9.172 9.167,33.072 -33.088,9.171 -33.088,9.172 -9.167,-33.072 -33.088,9.171 -33.088,9.172 9.167,33.072 9.167,33.071 -33.088,9.172 -9.167,-33.072 -14.763,4.092 -15.442,-222.82 c 0,0 21.921,-32.649 80.819,-34.73 88.221,-3.085 131.52,44.359 204.529,60.557 45.884,10.293 56.063,-10.335 56.063,-10.335 l 29.771,191.454 c 0,0 76.792,-16.628 120.64,34.773 26.021,30.592 -13.091,62.527 -53.56,73.744 -42.251,11.711 -92.223,4.469 -172.226,-17.187 z"
       fill="#ffffff"
       stroke="#ff6b00"
       stroke-width="1.22338"
       stroke-miterlimit="10"
       id="path14" />
    <path
       d="m 509.899,721.677 -4.072,1.128 c -11.294,-3.17 -22.729,-6.849 -34.304,-11.037 l -3.879,-13.992 33.088,-9.171 z"
       fill="#ffffff"
       stroke="#ff6b00"
       stroke-width="1.22338"
       stroke-miterlimit="10"
       id="path16" />
    <path
       d="m 425.389,673.876 -32.325,8.959 c -0.254,0.071 -0.579,-0.113 -0.834,-0.042 l -9.096,-32.818 33.088,-9.171 z"
       fill="#ffffff"
       stroke="#ff6b00"
       stroke-width="1.22338"
       stroke-miterlimit="10"
       id="path18" />
    <path
       d="m 355.405,678.481 c -12.879,0.009 -24.176,1.77 -34.428,4.338 l -4.019,-14.501 33.088,-9.171 z"
       fill="#ffffff"
       stroke="#ff6b00"
       stroke-width="1.22338"
       stroke-miterlimit="10"
       id="path20" />
    <path
       d="m 267.585,717.616 -2.546,0.706 -2.549,-34.906 21.38,-5.926 5.359,19.334 c -10.905,7.132 -18.262,15.198 -21.644,20.792 z"
       fill="#ffffff"
       stroke="#ff6b00"
       stroke-width="1.22338"
       stroke-miterlimit="10"
       id="path22" />
    <path
       d="m 340.879,626.075 33.088,-9.172 9.167,33.072 -33.088,9.172 z"
       fill="#ffffff"
       stroke="#ff6b00"
       stroke-width="1.22338"
       stroke-miterlimit="10"
       id="path24" />
    <path
       d="m 557.213,454.34 30.465,231.532 c 0,0 55.46,-39.206 129.632,-27.714 L 675.995,435.935 c 0,0 -35.226,-27.218 -89.763,5.431 0,0 -11.248,13.802 -29.019,12.974 z"
       fill="#262626"
       id="path26" />
    <path
       d="m 586.233,441.365 -7.032,-55.031 c 0,0 82.15,-15.1 122.45,35.367 l 42.012,257.369 c 0,0 -4.329,-16.607 -53.984,-31.607 -29.895,-8.972 -70.916,3.22 -70.916,3.22 z"
       fill="#ffffff"
       stroke="#ff6b00"
       stroke-width="1.22338"
       stroke-miterlimit="10"
       id="path28" />
    <path
       d="m 383.94,395.804 c 0,0 -32.01,-16.604 -72.538,-2.631 -40.528,13.973 -138.336,104.091 -138.336,104.091 l -3.073,174.807 c 0,0 119.375,-101.301 158.698,-109.735 37.47,-8.195 69.41,8.155 69.41,8.155 z"
       fill="#262626"
       id="path30" />
    <path
       d="m 352.725,352.407 c 0,0 -30.22,-9.156 -72.538,-2.631 -38.105,5.905 -138.336,104.091 -138.336,104.091 l -3.073,174.807 c 0,0 120.574,-96.977 158.698,-109.735 38.123,-12.759 68.708,0.679 68.708,0.679 z"
       fill="#ffffff"
       stroke="#ff6b00"
       stroke-width="1.22338"
       stroke-miterlimit="10"
       id="path32" />
    <path
       d="m 252.258,362.722 0.569,78.191 -76.172,61.383 0.437,-81.482 55.619,-45.551 z"
       fill="#262626"
       id="path34" />
    <path
       d="m 339.867,697.581 85.52,-23.705 15.019,54.187 -85.52,23.705 z"
       fill="#ffffff"
       stroke="#ff6b00"
       stroke-width="1.22338"
       stroke-miterlimit="10"
       id="path36" />
    <path
       d="m 418.5,705.671 -0.377,-1.357 -12.466,-2.536 0.602,2.171 9.499,1.715 -0.106,-0.117 0.094,0.339 0.03,-0.155 -7.26,6.361 0.601,2.171 z m -24.656,-6.172 11.362,19.246 1.832,-0.508 -11.362,-19.246 z m -8.342,21.894 0.949,-1.651 -6.868,-3.887 13.927,-3.86 -0.517,-1.866 -13.927,3.86 3.891,-6.851 -1.668,-0.944 -5.493,9.706 z m -24.973,0.346 12.467,2.536 -0.602,-2.171 -9.499,-1.715 0.105,0.117 -0.094,-0.339 -0.03,0.154 7.261,-6.36 -0.602,-2.171 -9.382,8.592 z"
       fill="#000000"
       id="path38" />
    <path
       d="m 232.595,358.036 0.314,78.261 -76.172,61.384 0.461,-75.463 z"
       fill="#ffffff"
       stroke="#262626"
       stroke-width="1.22338"
       stroke-miterlimit="10"
       id="path40" />
    <path
       d="m 341.951,293.756 -6.92,-73.417 76.242,-61.129 6.074,70.364 z"
       fill="#ffffff"
       stroke="#262626"
       stroke-width="1.22338"
       stroke-miterlimit="10"
       id="path42" />
    <path
       d="m 376.201,239.335 c -4.78,1.325 -9.727,-1.474 -11.052,-6.251 -1.324,-4.777 1.477,-9.723 6.257,-11.048 4.779,-1.325 9.727,1.474 11.051,6.251 1.324,4.777 -1.477,9.724 -6.256,11.048 z"
       fill="#ffffff"
       stroke="#262626"
       stroke-width="1.22338"
       stroke-miterlimit="10"
       id="path44" />
    <path
       d="m 196.552,450.484 -0.005,27.67 -26.876,21.695 0.287,-26.652 z"
       fill="#ffffff"
       stroke="#262626"
       stroke-width="1.22338"
       stroke-miterlimit="10"
       id="path46" />
    <path
       d="m 294.03,491.677 0.225,44.317 -41.682,26.62 0.199,-42.79 z"
       fill="#ffffff"
       stroke="#262626"
       stroke-width="1.22338"
       stroke-miterlimit="10"
       id="path48" />
    <path
       d="m 433.972,521.922 c -18.414,5.104 -37.478,-5.679 -42.58,-24.084 -5.102,-18.406 5.691,-37.464 24.105,-42.569 18.415,-5.104 37.479,5.679 42.58,24.085 5.102,18.405 -5.69,37.464 -24.105,42.568 z"
       fill="#262626"
       id="path50" />
    <path
       d="m 425.204,507.094 c -18.415,5.104 -37.479,-5.679 -42.58,-24.084 -5.102,-18.406 5.69,-37.465 24.105,-42.569 18.414,-5.104 37.478,5.679 42.58,24.085 5.102,18.405 -5.691,37.464 -24.105,42.568 z"
       fill="#ffffff"
       stroke="#262626"
       stroke-width="1.22338"
       stroke-miterlimit="10"
       id="path52" />
    <path
       d="M 415.964,473.768 548.818,239.155"
       stroke="#ff6b00"
       stroke-width="1.22338"
       stroke-miterlimit="10"
       id="path54" />
    <path
       d="m 562.716,261.601 c -18.414,5.104 -37.478,-5.679 -42.58,-24.084 -5.101,-18.406 5.691,-37.464 24.105,-42.569 18.415,-5.104 37.479,5.679 42.58,24.085 5.102,18.405 -5.69,37.464 -24.105,42.568 z"
       fill="#ffffff"
       stroke="#ff6b00"
       stroke-width="1.22338"
       stroke-miterlimit="10"
       id="path56" />
    <path
       d="m 540.748,196.191 5.621,-13.338 32.433,40.869 -24.575,46.807 -6.031,-7.916"
       stroke="#ff6b00"
       stroke-width="1.22338"
       stroke-miterlimit="10"
       id="path58" />
    <path
       d="m 711.635,343.809 -0.481,-1.735 -15.937,-3.241 0.769,2.775 12.144,2.192 -0.135,-0.149 0.12,0.433 0.039,-0.197 -9.282,8.13 0.769,2.776 z m -28.719,16.367 0.661,2.386 13.879,-3.847 -0.661,-2.386 z m -13.806,3.827 0.662,2.385 13.878,-3.847 -0.661,-2.385 z m -13.805,3.827 0.661,2.385 13.879,-3.847 -0.661,-2.385 z m -16.606,-20.43 14.525,24.602 2.343,-0.649 -14.526,-24.603 z m -8.083,27.273 0.661,2.385 13.879,-3.847 -0.661,-2.385 z m -19.179,-3.091 15.937,3.242 -0.769,-2.775 -12.143,-2.192 0.134,0.149 -0.12,-0.433 -0.038,0.197 9.282,-8.13 -0.77,-2.776 -11.994,10.984 z"
       fill="#000000"
       id="path60" />
    <path
       d="m 418.393,478.574 c -3.373,0.935 -6.866,-1.041 -7.801,-4.413 -0.934,-3.372 1.043,-6.863 4.417,-7.798 3.373,-0.936 6.866,1.04 7.801,4.412 0.934,3.372 -1.043,6.864 -4.417,7.799 z"
       fill="#ffffff"
       stroke="#ff6b00"
       stroke-width="1.22338"
       stroke-miterlimit="10"
       id="path62" />
    <path
       d="m 661.841,124.821 34.024,-12.718 -4.089,-37.4927 35.085,-13.8341 4.23,38.0018 36.498,-13.678 4.328,39.344 -36.71,12.915 -35.692,12.633 3.975,38.072 -34.376,11.446 3.65,37.889 -33.315,10.33 -3.439,-37.126 -3.622,-36.8 32.962,-11.602 z"
       fill="#666666"
       id="path64" />
    <path
       d="m 658.219,88.0211 -3.877,-36.7297 33.671,-13.9901 3.763,37.3091 z"
       fill="#262626"
       id="path66" />
    <path
       d="m 628.836,137.257 -3.482,-36.291 32.865,-12.9448 3.622,36.8008 z"
       fill="#262626"
       id="path68" />
    <path
       d="m 593.947,113.233 -3.27,-35.528 31.196,-13.0302 3.482,36.2912 z"
       fill="#262626"
       id="path70" />
    <path
       d="m 597.288,149.016 31.548,-11.759 3.553,36.546 -31.945,11.32 -30.672,10.967 -3.27,-35.528 -3.199,-35.274 30.644,-12.055 z"
       fill="#ff6b00"
       id="path72" />
    <path
       d="M 654.342,51.2914 621.874,64.6744 618.533,28.8917 615.263,-6.63664 647.125,-21.221 680.443,-36.4832 684.32,0.246608 650.79,14.7455 Z"
       fill="#262626"
       id="path74" />
    <path
       d="m 557.186,55.7583 30.292,-13.3274 3.199,35.2739 -30.433,12.8186 z"
       fill="#262626"
       id="path76" />
    <path
       d="m 533.93,136.991 -2.988,-34.511 29.301,-11.9568 3.059,34.7648 z"
       fill="#262626"
       id="path78" />
    <path
       d="M 373.801,230.686 936.759,396.803"
       stroke="#ff6b00"
       stroke-width="1.22338"
       stroke-miterlimit="10"
       id="path80" />
  </g>
  <defs
     id="defs87">
    <clipPath
       id="clip0">
      <rect
         width="1003.13"
         height="769.271"
         fill="white"
         transform="matrix(-0.963665 0.267112 0.267112 0.963665 966.682 -135)"
         id="rect84" />
    </clipPath>
  </defs>
</svg>

<svg width="662" height="875" viewBox="0 0 662 875" fill="none" xmlns="http://www.w3.org/2000/svg">
<g clip-path="url(#clip0)">
<path d="M766.504 80.1959L821.439 169.616C821.439 169.616 788.332 185.641 741.498 221.36C701.709 251.839 651.326 309.362 651.326 309.362L558 148.674C558 148.674 599.683 99.3156 661.619 57.7667C718.888 19.1552 730.804 21.6051 730.804 21.6051L766.504 80.1959Z" fill="white" stroke="#262626" stroke-width="1.22338" stroke-miterlimit="10"/>
<path d="M577.835 127.287L660.117 271.86C660.117 271.86 687.606 241.503 717.963 215.556C770.345 171.177 810.621 152.343 810.621 152.343L730.479 21.4213C730.804 21.6051 657.587 40.256 577.835 127.287Z" fill="#262626"/>
<path d="M989.606 104.922C989.606 104.922 945.76 71.3264 854.904 104.455C764.047 137.583 665.378 226.57 665.378 226.57L574.1 68.3277C574.1 68.3277 698.652 -36.052 782.371 -52.409C850.212 -65.7345 885.727 -47.3624 885.727 -47.3624L989.606 104.922Z" fill="white" stroke="#262626" stroke-width="1.22338" stroke-miterlimit="10"/>
<path d="M969.056 34.7358L859.587 266.702L553.478 228.275" stroke="#FF6B00" stroke-width="1.22338" stroke-miterlimit="10"/>
<path d="M552.459 355.12L719.936 308.699L742.994 391.887L575.517 438.309L552.459 355.12Z" fill="white" stroke="#FF6B00" stroke-width="1.22338" stroke-miterlimit="10"/>
<path d="M467.644 697.776L448.554 703.067C443.565 700.889 438.392 699.036 433.332 696.603C432.682 696.235 432.103 696.122 431.453 695.754L425.388 673.876L458.477 664.704L467.644 697.776Z" fill="white" stroke="#FF6B00" stroke-width="1.22338" stroke-miterlimit="10"/>
<path d="M509.898 721.677L542.986 712.505L533.819 679.433L500.731 688.605L491.564 655.533L524.652 646.362L515.485 613.29L482.397 622.461L449.309 631.633L440.142 598.561L473.23 589.389L464.063 556.317L430.975 565.489L440.142 598.561L407.054 607.732L373.966 616.904L364.799 583.832L331.711 593.003L298.623 602.175L307.79 635.247L316.957 668.318L283.869 677.49L274.702 644.418L259.939 648.51L244.497 425.69C244.497 425.69 266.418 393.041 325.316 390.96C413.537 387.875 456.836 435.319 529.845 451.517C575.729 461.81 585.908 441.182 585.908 441.182L615.679 632.636C615.679 632.636 692.471 616.008 736.319 667.409C762.34 698.001 723.228 729.936 682.759 741.153C640.508 752.864 590.536 745.622 510.533 723.966L509.898 721.677Z" fill="white" stroke="#FF6B00" stroke-width="1.22338" stroke-miterlimit="10"/>
<path d="M509.899 721.677L505.827 722.805C494.533 719.635 483.098 715.956 471.523 711.768L467.644 697.776L500.732 688.605L509.899 721.677Z" fill="white" stroke="#FF6B00" stroke-width="1.22338" stroke-miterlimit="10"/>
<path d="M425.389 673.876L393.064 682.835C392.81 682.906 392.485 682.722 392.23 682.793L383.134 649.975L416.222 640.804L425.389 673.876Z" fill="white" stroke="#FF6B00" stroke-width="1.22338" stroke-miterlimit="10"/>
<path d="M355.405 678.481C342.526 678.49 331.229 680.251 320.977 682.819L316.958 668.318L350.046 659.147L355.405 678.481Z" fill="white" stroke="#FF6B00" stroke-width="1.22338" stroke-miterlimit="10"/>
<path d="M267.585 717.616L265.039 718.322L262.49 683.416L283.87 677.49L289.229 696.824C278.324 703.956 270.967 712.022 267.585 717.616Z" fill="white" stroke="#FF6B00" stroke-width="1.22338" stroke-miterlimit="10"/>
<path d="M340.879 626.075L373.967 616.903L383.134 649.975L350.046 659.147L340.879 626.075Z" fill="white" stroke="#FF6B00" stroke-width="1.22338" stroke-miterlimit="10"/>
<path d="M557.213 454.34L587.678 685.872C587.678 685.872 643.138 646.666 717.31 658.158L675.995 435.935C675.995 435.935 640.769 408.717 586.232 441.366C586.232 441.366 574.984 455.168 557.213 454.34Z" fill="#262626"/>
<path d="M586.233 441.365L579.201 386.334C579.201 386.334 661.351 371.234 701.651 421.701L743.663 679.07C743.663 679.07 739.334 662.463 689.679 647.463C659.784 638.491 618.763 650.683 618.763 650.683L586.233 441.365Z" fill="white" stroke="#FF6B00" stroke-width="1.22338" stroke-miterlimit="10"/>
<path d="M383.94 395.804C383.94 395.804 351.93 379.2 311.402 393.173C270.874 407.146 173.066 497.264 173.066 497.264L169.993 672.071C169.993 672.071 289.368 570.77 328.691 562.336C366.161 554.141 398.101 570.491 398.101 570.491L383.94 395.804Z" fill="#262626"/>
<path d="M352.725 352.407C352.725 352.407 322.505 343.251 280.187 349.776C242.082 355.681 141.851 453.867 141.851 453.867L138.778 628.674C138.778 628.674 259.352 531.697 297.476 518.939C335.599 506.18 366.184 519.618 366.184 519.618L352.725 352.407Z" fill="white" stroke="#FF6B00" stroke-width="1.22338" stroke-miterlimit="10"/>
<path d="M252.258 362.722L252.827 440.913L176.655 502.296L177.092 420.814L232.711 375.263L252.258 362.722Z" fill="#262626"/>
<path d="M339.867 697.581L425.387 673.876L440.406 728.063L354.886 751.768L339.867 697.581Z" fill="white" stroke="#FF6B00" stroke-width="1.22338" stroke-miterlimit="10"/>
<path d="M418.5 705.671L418.123 704.314L405.657 701.778L406.259 703.949L415.758 705.664L415.652 705.547L415.746 705.886L415.776 705.731L408.516 712.092L409.117 714.263L418.5 705.671ZM393.844 699.499L405.206 718.745L407.038 718.237L395.676 698.991L393.844 699.499ZM385.502 721.393L386.451 719.742L379.583 715.855L393.51 711.995L392.993 710.129L379.066 713.989L382.957 707.138L381.289 706.194L375.796 715.9L385.502 721.393ZM360.529 721.739L372.996 724.275L372.394 722.104L362.895 720.389L363 720.506L362.906 720.167L362.876 720.321L370.137 713.961L369.535 711.79L360.153 720.382L360.529 721.739Z" fill="black"/>
<path d="M232.595 358.036L232.909 436.297L156.737 497.681L157.198 422.218L232.595 358.036Z" fill="white" stroke="#262626" stroke-width="1.22338" stroke-miterlimit="10"/>
<path d="M341.951 293.756L335.031 220.339L411.273 159.21L417.347 229.574L341.951 293.756Z" fill="white" stroke="#262626" stroke-width="1.22338" stroke-miterlimit="10"/>
<path d="M376.201 239.335C371.421 240.66 366.474 237.861 365.149 233.084C363.825 228.307 366.626 223.361 371.406 222.036C376.185 220.711 381.133 223.51 382.457 228.287C383.781 233.064 380.98 238.011 376.201 239.335Z" fill="white" stroke="#262626" stroke-width="1.22338" stroke-miterlimit="10"/>
<path d="M196.552 450.484L196.547 478.154L169.671 499.849L169.958 473.197L196.552 450.484Z" fill="white" stroke="#262626" stroke-width="1.22338" stroke-miterlimit="10"/>
<path d="M294.03 491.677L294.255 535.994L252.573 562.614L252.772 519.824L294.03 491.677Z" fill="white" stroke="#262626" stroke-width="1.22338" stroke-miterlimit="10"/>
<path d="M433.972 521.922C415.558 527.026 396.494 516.243 391.392 497.838C386.29 479.432 397.083 460.374 415.497 455.269C433.912 450.165 452.976 460.948 458.077 479.354C463.179 497.759 452.387 516.818 433.972 521.922Z" fill="#262626"/>
<path d="M425.204 507.094C406.789 512.198 387.725 501.415 382.624 483.01C377.522 464.604 388.314 445.545 406.729 440.441C425.143 435.337 444.207 446.12 449.309 464.526C454.411 482.931 443.618 501.99 425.204 507.094Z" fill="white" stroke="#262626" stroke-width="1.22338" stroke-miterlimit="10"/>
<path d="M415.964 473.768L548.818 239.155" stroke="#FF6B00" stroke-width="1.22338" stroke-miterlimit="10"/>
<path d="M562.716 261.601C544.302 266.705 525.238 255.922 520.136 237.517C515.035 219.111 525.827 200.053 544.241 194.948C562.656 189.844 581.72 200.627 586.821 219.033C591.923 237.438 581.131 256.497 562.716 261.601Z" fill="white" stroke="#FF6B00" stroke-width="1.22338" stroke-miterlimit="10"/>
<path d="M540.748 196.191L546.369 182.853L578.802 223.722L554.227 270.529L548.196 262.613" stroke="#FF6B00" stroke-width="1.22338" stroke-miterlimit="10"/>
<path d="M711.635 343.809L711.154 342.074L695.217 338.833L695.986 341.608L708.13 343.8L707.995 343.651L708.115 344.084L708.154 343.887L698.872 352.017L699.641 354.793L711.635 343.809ZM682.916 360.176L683.577 362.562L697.456 358.715L696.795 356.329L682.916 360.176ZM669.11 364.003L669.772 366.388L683.65 362.541L682.989 360.156L669.11 364.003ZM655.305 367.83L655.966 370.215L669.845 366.368L669.184 363.983L655.305 367.83ZM638.699 347.4L653.224 372.002L655.567 371.353L641.041 346.75L638.699 347.4ZM630.616 374.673L631.277 377.058L645.156 373.211L644.495 370.826L630.616 374.673ZM611.437 371.582L627.374 374.824L626.605 372.049L614.462 369.857L614.596 370.006L614.476 369.573L614.438 369.77L623.72 361.64L622.95 358.864L610.956 369.848L611.437 371.582Z" fill="black"/>
<path d="M418.393 478.574C415.02 479.509 411.527 477.533 410.592 474.161C409.658 470.789 411.635 467.298 415.009 466.363C418.382 465.427 421.875 467.403 422.81 470.775C423.744 474.147 421.767 477.639 418.393 478.574Z" fill="white" stroke="#FF6B00" stroke-width="1.22338" stroke-miterlimit="10"/>
<path d="M661.841 124.821L695.865 112.103L691.776 74.6103L726.861 60.7762L731.091 98.778L767.589 85.1L771.917 124.444L735.207 137.359L699.515 149.992L703.49 188.064L669.114 199.51L672.764 237.399L639.449 247.729L636.01 210.603L632.388 173.803L665.35 162.201L661.841 124.821Z" fill="#666666"/>
<path d="M658.219 88.0211L654.342 51.2914L688.013 37.3013L691.776 74.6104L658.219 88.0211Z" fill="#262626"/>
<path d="M628.836 137.257L625.354 100.966L658.219 88.0212L661.841 124.822L628.836 137.257Z" fill="#262626"/>
<path d="M593.947 113.233L590.677 77.705L621.873 64.6748L625.355 100.966L593.947 113.233Z" fill="#262626"/>
<path d="M597.288 149.016L628.836 137.257L632.389 173.803L600.444 185.123L569.772 196.09L566.502 160.562L563.303 125.288L593.947 113.233L597.288 149.016Z" fill="#FF6B00"/>
<path d="M654.342 51.2914L621.874 64.6744L618.533 28.8917L615.263 -6.63664L647.125 -21.221L680.443 -36.4832L684.32 0.246608L650.79 14.7455L654.342 51.2914Z" fill="#262626"/>
<path d="M557.186 55.7583L587.478 42.4309L590.677 77.7048L560.244 90.5234L557.186 55.7583Z" fill="#262626"/>
<path d="M533.93 136.991L530.942 102.48L560.243 90.5232L563.302 125.288L533.93 136.991Z" fill="#262626"/>
<path d="M373.801 230.686L936.759 396.803" stroke="#FF6B00" stroke-width="1.22338" stroke-miterlimit="10"/>
</g>
<defs>
<clipPath id="clip0">
<rect width="1003.13" height="769.271" fill="white" transform="matrix(-0.963665 0.267112 0.267112 0.963665 966.682 -135)"/>
</clipPath>
</defs>
</svg>
